src/images/07-reviews/qoutes.svg

<svg width="54" height="40" viewBox="0 0 54 40" fill="none" xmlns="http://www.w3.org/2000/svg">
<path d="M40.0179 2.59234e-06C42.4286 2.80309e-06 44.7054 0.650412 46.8482 1.95122C48.9911 3.25204 50.7321 5.12195 52.0714 7.56098C53.3571 10 54 12.8726 54 16.1789C54 19.4851 53.1964 22.71 51.5893 25.8537C51.0536 26.9919 50.0893 28.4553 48.6964 30.2439C47.25 32.0325 45.9107 33.5772 44.6786 34.878L39.6161 40L36 33.9837C38.5179 32.4119 40.7411 30.4607 42.6696 28.1301C44.5982 25.8537 45.5625 23.7669 45.5625 21.8699C45.5625 20.8943 45.3482 20.1084 44.9196 19.5122C43.0446 20.8672 40.9554 21.5447 38.6518 21.5447C36.9911 21.5447 35.4107 21.0298 33.9107 20C32.3571 19.0244 31.125 17.7236 30.2143 16.0976C29.25 14.5257 28.7679 12.8997 28.7679 11.2195C28.7679 9.3225 29.3304 7.50678 30.4554 5.77236C31.5268 4.03794 32.9464 2.62873 34.7143 1.54472C36.4286 0.514908 38.1964 2.43311e-06 40.0179 2.59234e-06ZM11.1696 7.03482e-08C13.5804 2.811e-07 15.8571 0.650409 18 1.95122C20.1429 3.25204 21.8839 5.12195 23.2232 7.56098C24.5089 10 25.1518 12.8726 25.1518 16.1789C25.1518 18.5095 24.8571 20.5962 24.2679 22.439C23.6786 24.336 22.6607 26.3144 21.2143 28.374C19.8214 30.3252 18.5089 31.9512 17.2768 33.252C16.0446 34.607 13.9018 36.8564 10.8482 40L7.23214 33.9837C9.75 32.4119 11.9732 30.4607 13.9018 28.1301C15.8304 25.8537 16.7946 23.7669 16.7946 21.8699C16.7946 20.8943 16.5804 20.1084 16.1518 19.5122C14.2768 20.8672 12.1875 21.5447 9.88393 21.5447C8.22321 21.5447 6.64285 21.0298 5.14285 20C3.58928 19.0244 2.35714 17.7236 1.44643 16.0976C0.482143 14.5257 -1.44552e-06 12.8997 -1.29863e-06 11.2195C-1.13278e-06 9.32249 0.535714 7.50677 1.60714 5.77236C2.67857 4.03794 4.09822 2.62873 5.86607 1.54472C7.58036 0.514905 9.34821 -8.88861e-08 11.1696 7.03482e-08Z" fill="#E1E1E1"/>
</svg>

<svg width="54" height="40" fill="none" xmlns="http://www.w3.org/2000/svg"><path d="M40.0179 0c2.4107 0 4.6875.6504 6.8303 1.9512 2.1429 1.3008 3.8839 3.1707 5.2232 5.6098C53.3571 10 54 12.8726 54 16.1789c0 3.3062-.8036 6.5311-2.4107 9.6748-.5357 1.1382-1.5 2.6016-2.8929 4.3902-1.4464 1.7886-2.7857 3.3333-4.0178 4.6341L39.6161 40 36 33.9837c2.5179-1.5718 4.7411-3.523 6.6696-5.8536 1.9286-2.2764 2.8929-4.3632 2.8929-6.2602 0-.9756-.2143-1.7615-.6429-2.3577-1.875 1.355-3.9642 2.0325-6.2678 2.0325-1.6607 0-3.2411-.5149-4.7411-1.5447-1.5536-.9756-2.7857-2.2764-3.6964-3.9024-.9643-1.5719-1.4464-3.1979-1.4464-4.8781 0-1.897.5625-3.7127 1.6875-5.4471 1.0714-1.7345 2.491-3.1437 4.2589-4.2277C36.4286.515 38.1964 0 40.0179 0ZM11.1696 0C13.5804 0 15.8571.6504 18 1.9512c2.1429 1.3008 3.8839 3.1707 5.2232 5.6098 1.2857 2.439 1.9286 5.3116 1.9286 8.6179 0 2.3306-.2947 4.4173-.8839 6.2601-.5893 1.897-1.6072 3.8754-3.0536 5.935-1.3929 1.9512-2.7054 3.5772-3.9375 4.878-1.2322 1.355-3.375 3.6044-6.4286 6.748l-3.616-6.0163c2.5178-1.5718 4.741-3.523 6.6696-5.8536 1.9286-2.2764 2.8928-4.3632 2.8928-6.2602 0-.9756-.2142-1.7615-.6428-2.3577-1.875 1.355-3.9643 2.0325-6.2679 2.0325-1.6607 0-3.241-.5149-4.741-1.5447-1.5536-.9756-2.7858-2.2764-3.6965-3.9024C.4821 14.5257 0 12.8997 0 11.2195c0-1.897.5357-3.7127 1.6071-5.4471 1.0715-1.7345 2.4911-3.1437 4.259-4.2277C7.5804.515 9.3482 0 11.1696 0Z" fill="#E1E1E1"/></svg>
